dist/img/icons/user.svg

<svg width="26" height="26" viewBox="0 0 26 26" fill="none" xmlns="http://www.w3.org/2000/svg">
<path fill-rule="evenodd" clip-rule="evenodd" d="M18.6337 19.5312C18.6337 21.2397 16.9948 22.625 14.9733 22.625H8.87225C6.85076 22.625 5.21179 21.2397 5.21179 19.5312V17.4688C5.21179 16.0071 6.41454 14.7902 8.02667 14.4664C9.12652 15.2715 10.4687 15.75 11.9228 15.75C13.3768 15.75 14.719 15.2715 15.8189 14.4664C17.431 14.7902 18.6337 16.0071 18.6337 17.4688V19.5312ZM6.70311 8.875C6.70311 5.83763 9.04002 3.375 11.9228 3.375C14.8055 3.375 17.1424 5.83763 17.1424 8.875C17.1424 11.9124 14.8055 14.375 11.9228 14.375C9.04002 14.375 6.70311 11.9124 6.70311 8.875ZM17.1059 13.2427C18.0596 12.0547 18.6337 10.5332 18.6337 8.875C18.6337 5.07862 15.6295 2 11.9228 2C8.21607 2 5.21179 5.07862 5.21179 8.875C5.21179 10.5332 5.78595 12.0547 6.73965 13.2427C4.98734 13.8009 3.72046 15.3189 3.72046 17.125V19.875C3.72046 22.1527 5.72406 24 8.19444 24H15.6511C18.1215 24 20.1251 22.1527 20.1251 19.875V17.125C20.1251 15.3189 18.8582 13.8009 17.1059 13.2427Z" fill="#131314"/>
</svg>

<svg width="26" height="26" viewBox="0 0 26 26" fill="none" xmlns="http://www.w3.org/2000/svg"><path fill-rule="evenodd" clip-rule="evenodd" d="M18.634 19.531c0 1.709-1.64 3.094-3.66 3.094H8.871c-2.021 0-3.66-1.385-3.66-3.094V17.47c0-1.462 1.203-2.679 2.815-3.003a6.57 6.57 0 0 0 3.896 1.284 6.57 6.57 0 0 0 3.896-1.284c1.612.324 2.815 1.541 2.815 3.003v2.062zM6.704 8.875c0-3.037 2.336-5.5 5.219-5.5 2.883 0 5.22 2.463 5.22 5.5s-2.338 5.5-5.22 5.5c-2.883 0-5.22-2.463-5.22-5.5zm10.402 4.368a6.957 6.957 0 0 0 1.528-4.368C18.634 5.079 15.629 2 11.923 2 8.216 2 5.212 5.079 5.212 8.875c0 1.658.574 3.18 1.528 4.368-1.753.558-3.02 2.076-3.02 3.882v2.75C3.72 22.153 5.724 24 8.194 24h7.457c2.47 0 4.474-1.847 4.474-4.125v-2.75c0-1.806-1.267-3.324-3.02-3.882z" fill="#131314"/></svg>
